X: 1
T:Bourr\'ee
M:2/4
L:1/8
O:France
R:Bourr\'ee
K:Dm
D>E FG | A3 A| A>d ^cd | A3 A | B>A GE | F>E DF | E>D EF | D4 ::
A>G FG | A>G FG | A>G AB | A>G FG | A>G FG | A>G AB | A>G FE | D4 :|
